!!!COM: Scriabin, Alexander
!!!OTL: Etude
!!!OPR: 12 Etudes
!!!OPS: 8
!!!ONM: 9
!!!ODT: 1894
!!!AGN: Etude
**kern	**kern	**dynam
*staff2	*staff1	*staff1/2
*Ipiano	*Ipiano	*
*clefF4	*clefG2	*
*k[f#c#g#d#a#]	*k[f#c#g#d#a#]	*
*g#:	*g#:	*
*M4/4	*M4/4	*
*met(c)	*met(c)	*
=1	=1	=1
12EEL 12E	[4G# [4g#	.
12FF# 12F#	.	.
12GGG#J 12GG#	.	.
12DD#L 12D#	16G#LL] 16g#]	.
.	16G# 16g#	.
12EE 12E	.	.
.	16G# 16g#	.
12GGG#J 12GG#	.	.
.	16G#JJ 16g#	.
12CC#L 12C#	4G# 4g#	.
12DD# 12D#	.	.
12GGG#J 12GG#	.	.
12BBBL 12BB	4G# 4g#	.
12CC# 12C#	.	.
12GGG#J 12GG#	.	.
=2	=2	=2
*^	*	*
12AAA#L 12AA#	4rEE	4G# 4g#	.
12BBB 12BB	.	.	.
12GGG#J 12GG#	.	.	.
12BL 12b	4d#	4g# 4dd# 4gg#	.
12A# 12a#	.	.	.
12G#J 12g#	.	.	.
12F#L 12f#	4B	4b 4dd# 4bb	.
12G# 12g#	.	.	.
12D#J 12d#	.	.	.
12C#L 12c#	4G#	4dd# 4gg# 4ddd#	.
12D# 12d#	.	.	.
12GG#J 12G#	.	.	.
*v	*v	*	*
=3	=3	=3
12AAnL 12An	[4c# [4cc#	.
12BB 12B	.	.
12CC#J 12C#	.	.
12GG#L 12G#	16c#LL] 16cc#]	.
.	16c# 16cc#	.
12AA 12A	.	.
.	16c# 16cc#	.
12CC#J 12C#	.	.
.	16c#JJ 16cc#	.
12FF#L 12F#	4c# 4cc#	.
12GG# 12G#	.	.
12CC#J 12C#	.	.
12EEL 12E	4c# 4cc#	.
12FF# 12F#	.	.
12CC#J 12C#	.	.
=4	=4	=4
*^	*	*
12DD#L 12D#	4rEE	4c# 4cc#	.
12EE 12E	.	.	.
12CC#J 12C#	.	.	.
*clefG2	*	*	*
12eL 12ee	4g#	4cc# 4gg# 4ccc#	.
12d# 12dd#	.	.	.
12c#J 12cc#	.	.	.
12BL 12b	4e	4ee 4gg# 4eee	.
12c# 12cc#	.	.	.
12G#J 12g#	.	.	.
*clefF4	*	*	*
12F#L 12f#	4c#	4gg# 4ccc# 4ggg#	.
12G# 12g#	.	.	.
12C#J 12c#	.	.	.
*v	*v	*	*
=5	=5	=5
*	*^	*
12CC#L 12C#	4d# 4f##X 4dd#	4rc	.
12BB 12B	.	.	.
12AA#J 12A#	.	.	.
12GG##XL 12G##X	8eL 8f## 8ee	4rc	.
12AA# 12A#	.	.	.
.	8d#J 8f## 8dd#	.	.
12CC#J 12C#	.	.	.
12BBBL 12BB	8f##L 8dd# 8ff##X	4rc	.
12D# 12d#	.	.	.
.	8g#J 8dd# 8gg#	.	.
12GG#XJ 12G#X	.	.	.
4G# 4d# 4b	6a# 6aa#	4dd#	.
.	12g# 12gg#	.	.
=6	=6	=6	=6
12CC#L 12C#	8eL 8f##X 8ee	4rc	.
12BB 12B	.	.	.
.	8d#J 8f## 8dd#	.	.
12AA#J 12A#	.	.	.
12GG##XL 12G##X	8c##XL 8f## 8cc##X	4rc	.
12AA# 12A#	.	.	.
.	8d#J 8f## 8dd#	.	.
12CC#J 12C#	.	.	.
12BBBL 12BB	8f##L 8ee 8ff##X	4rc	.
12E 12e	.	.	.
.	8g#J 8ee 8gg#	.	.
12BBJ 12B	.	.	.
4G#X 4e 4b	12a#L 12aa#	4ee	.
.	12g# 12gg#	.	.
.	12dd#J 12ddd#	.	.
=7	=7	=7	=7
12CC#L 12C#	8ff#L 8fff#	4gg# 4ccc#	.
12G# 12g#	.	.	.
.	8eeJ 8eee	.	.
12GG#J 12G#	.	.	.
*clefG2	*	*	*
4e 4g# 4ee	12dd#L 12ddd#	4gg#	.
.	12.cc# 12.ccc#	.	.
.	24bJk 24bb	.	.
*clefF4	*	*	*
12GGG#L 12GG#	8bL 8bb	4ee	.
12C# 12c#	.	.	.
.	8a#J 8aa#	.	.
12GG#J 12G#	.	.	.
4B 4e 4b	6a# 6aa#	4ee	.
.	12g# 12gg#	.	.
=8	=8	=8	=8
12CCC#L 12CC#	12f#L 12ff#	4cc#	.
12G# 12g#	12e 12ee	.	.
12GG#J 12G#	12d#J 12dd#	.	.
4E 4G# 4e	12d#L 12dd#	4g#	.
.	12c# 12cc#	.	.
.	12BJ 12b	.	.
12DDD#L 12DD#	4B 4e 4g# 4b	2rc	.
12CC# 12C#	.	.	.
12CC##XJ 12C##X	.	.	.
12DD#L 12D#	4A# 4d# 4f##X 4a#	.	.
12CC## 12C##	.	.	.
12DD#J 12D#	.	.	.
*	*v	*v	*
=9	=9	=9
12EEL 12E	[4G# [4g#	.
12FF# 12F#	.	.
12GGG#J 12GG#	.	.
12DD#L 12D#	16G#LL] 16g#]	.
.	16G# 16g#	.
12EE 12E	.	.
.	16G# 16g#	.
12GGG#J 12GG#	.	.
.	16G#JJ 16g#	.
12CC#L 12C#	4G# 4g#	.
12DD# 12D#	.	.
12GGG#J 12GG#	.	.
12BBBL 12BB	4G# 4g#	.
12CC# 12C#	.	.
12GGG#J 12GG#	.	.
=10	=10	=10
12AAA#L 12AA#	4G# 4g#	.
12BBB 12BB	.	.
12GGG#J 12GG#	.	.
12BL 12e 12b	8g#L 8ee 8gg#	.
12A# 12e 12a#	.	.
.	8bJ 8ee 8bb	.
12G#J 12e 12g#	.	.
12F#L 12B 12f#	8cc#L 8gg# 8ccc#	.
12E 12B 12e	.	.
.	8dd#J 8gg# 8ddd#	.
12D#J 12B 12d#	.	.
12C#L 12E 12c#	8eeL 8gg# 8eee	.
12BB 12E 12B	.	.
.	8gg#J 8ggg#	.
12GG#J 12E 12G#	.	.
=11	=11	=11
12AAnL 12An	[4c# [4cc#	.
12BB 12B	.	.
12CC#J 12C#	.	.
12GG#L 12G#	16c#LL] 16cc#]	.
.	16c# 16cc#	.
12AA 12A	.	.
.	16c# 16cc#	.
12CC#J 12C#	.	.
.	16c#JJ 16cc#	.
12FF#L 12F#	4c# 4cc#	.
12GG# 12G#	.	.
12CC#J 12C#	.	.
12EEL 12E	4c# 4cc#	.
12FF# 12F#	.	.
12CC#J 12C#	.	.
=12	=12	=12
12DD#L 12D#	4c# 4cc#	.
12EE 12E	.	.
12CC#J 12C#	.	.
*clefG2	*	*
12eL 12an 12ee	8cc#L 8aan 8ccc#	.
12d# 12a 12dd#	.	.
.	8eeJ 8aa 8eee	.
12c#J 12a 12cc#	.	.
12BL 12e 12b	8ff#L 8ccc# 8fff#	.
12An 12e 12a	.	.
.	8gg#J 8ccc# 8ggg#	.
12G#J 12e 12g#	.	.
*clefF4	*	*
12F#L 12An 12f#	8aaL 8ccc# 8aaan	.
12E 12A 12e	.	.
.	8ccc#J 8cccc#	.
12C#J 12A 12c#	.	.
=13	=13	=13
*	*^	*
12CC#L 12C#	4d# 4f##X 4dd#	4rc	.
12BB 12B	.	.	.
12AA#J 12A#	.	.	.
12GG##XL 12G##X	8eL 8f## 8ee	4rc	.
12AA# 12A#	.	.	.
.	8d#J 8f## 8dd#	.	.
12CC#J 12C#	.	.	.
12BBBL 12BB	8f##L 8dd# 8ff##X	4rc	.
12D# 12d#	.	.	.
.	8g#J 8dd# 8gg#	.	.
12GG#XJ 12G#X	.	.	.
4G# 4d# 4b	6a# 6aa#	4dd#	.
.	12g# 12gg#	.	.
=14	=14	=14	=14
12FF#L 12F#	4g# 4b#X 4gg#	4rc	.
12E 12e	.	.	.
12D#J 12d#	.	.	.
12C##XL 12c##X	8anL 8b# 8aan	4rc	.
12D# 12d#	.	.	.
.	8g#J 8b# 8gg#	.	.
12FF#J 12F#	.	.	.
12EEL 12E	8b#L 8gg# 8bb#X	4rc	.
12G# 12g#	.	.	.
.	8cc#J 8gg# 8ccc#	.	.
12C#XJ 12c#X	.	.	.
*clefG2	*	*	*
4c# 4g# 4ee	12dd#L 12ddd#	4gg#	.
.	12cc# 12ccc#	.	.
.	12g#J 12gg#	.	.
*clefF4	*	*	*
=15	=15	=15	=15
12FFF#L 12FF#	8gg#L 8ggg#	4ddd#	.
12F# 12f#	.	.	.
.	8ff#J 8fff#	.	.
12D#J 12d#	.	.	.
4B 4f# 4b	12eeL 12eee	4bb	.
.	12.dd# 12.ddd#	.	.
.	24cc#Jk 24ccc#	.	.
12FFF#L 12FF#	8cc#L 8ccc#	4ff#	.
12F# 12f#	.	.	.
.	8bJ 8bb	.	.
12DnJ 12dn	.	.	.
4B 4e#X 4b	6a# 6aa#	4ee#X	.
.	12g# 12gg#	.	.
=16	=16	=16	=16
8FFF#L 8FF#	12g#L 12gg#	4rc	.
.	12f# 12ff#	.	.
8FF#J 8F#	.	.	.
.	12eJ 12ee	.	.
8EL 8A# 8e	12d#L 12dd#	4a#	.
.	12c# 12cc#	.	.
8FF#J 8F#	.	.	.
.	12d#J 12dd#	.	.
12BBBBL 12BBB	4B 4d# 4b	4rc	.
12GG# 12G#	.	.	.
12GGnJ 12Gn	.	.	.
12FF#L 12F#	4raa	4rc	.
12BBB 12BB	.	.	.
12FFF#J 12FF#	.	.	.
*	*v	*v	*
*	*clefF4	*
=17	=17	=17
[4BBBB [4BBB	12GnL 12gn	.
.	12An 12an	.
.	12BBJ 12B	.
16BBBBLL] 16BBB]	12F#L 12f#	.
16BBBB 16BBB	.	.
.	12G 12g	.
16BBBB 16BBB	.	.
.	12BBJ 12B	.
16BBBBJJ 16BBB	.	.
4BBBB 4BBB	12EL 12e	.
.	12F# 12f#	.
.	12BBJ 12B	.
4BBBB 4BBB	12DnL 12dn	.
.	12E 12e	.
.	12BBJ 12B	.
=18	=18	=18
*	*^	*
4BBBB 4BBB	12C#L 12c#	4rEE	.
.	12Dn 12dn	.	.
.	12BBJ 12B	.	.
*	*clefG2	*	*
8FnL 8G#X 8dn 8fn	12ddnL 12dddn	4gg#	.
.	12cc# 12ccc#	.	.
8BBBJ 8BB	.	.	.
.	12bJ 12bb	.	.
8EL 8G# 8d 8e	12a#L 12aa#	4ee	.
.	12b 12bb	.	.
8BBBJ 8BB	.	.	.
.	12eJ 12ee	.	.
8DnL 8G# 8d	12fnL 12ffn	4b	.
.	12e 12ee	.	.
8BBBJ 8BB	.	.	.
.	12dnJ 12dd	.	.
=19	=19	=19	=19
12CCnL 12Cn	[4g#X	4G#X 4B-X 4fn	.
12DDn 12Dn	.	.	.
12BBB-XJ 12BB-X	.	.	.
12DDL 12D	16g#LL]	8G#L 8B- 8f	.
.	16g#	.	.
12EE-X 12E-X	.	.	.
.	16g#	8G#J 8B- 8e-X	.
12BBB-J 12BB-	.	.	.
.	16g#JJ	.	.
12EEnL 12En	4g#	4G# 4B- 4dn	.
12FFn 12Fn	.	.	.
12BBB-J 12BB-	.	.	.
12EE#XL 12E#X	4an	4An 4d	.
12FF#X 12F#X	.	.	.
12AAAnJ 12AAn	.	.	.
*	*v	*v	*
=20	=20	=20
12AAAnL 12AAn	4f# 4cc# 4ff#	.
12An 12an	.	.
12G#J 12g#	.	.
12GnL 12gn	4e 4cc# 4ee	.
12BB 12B	.	.
12BB-XJ 12B-X	.	.
12AAL 12A	4.dn 4.f# 4.ddn	.
12BBn 12Bn	.	.
12AAJ 12A	.	.
12GG#XL 12G#X	.	.
12AA 12A	.	.
.	8r	.
12DDnJ 12Dn	.	.
*	*clefF4	*
=21	=21	=21
[4FFF# [4FF#	12DnL 12dn	.
.	12E 12e	.
.	12FF#J 12F#	.
16FFF#LL] 16FF#]	12C#L 12c#	.
16FFF# 16FF#	.	.
.	12D 12d	.
16FFF# 16FF#	.	.
.	12FF#J 12F#	.
16FFF#JJ 16FF#	.	.
4FFF# 4FF#	12BBL 12B	.
.	12C# 12c#	.
.	12FF#J 12F#	.
4FFF# 4FF#	12AAnL 12An	.
.	12BB 12B	.
.	12FF#J 12F#	.
=22	=22	=22
*	*^	*
4FFF# 4FF#	12GG#L 12G#	4rEE	.
.	12AAn 12An	.	.
.	12FF#J 12F#	.	.
*	*clefG2	*	*
8CnL 8D#X 8An 8cn	12anL 12aan	4dd#	.
.	12g# 12gg#	.	.
8FFF#J 8FF#	.	.	.
.	12f#J 12ff#	.	.
8BBL 8D# 8A 8B	12e#XL 12ee#X	4b	.
.	12f# 12ff#	.	.
8FFF#J 8FF#	.	.	.
.	12BJ 12b	.	.
8AAnL 8D# 8A	12cnL 12ccn	4f#	.
.	12B 12b	.	.
8FFF#J 8FF#	.	.	.
.	12AnJ 12a	.	.
*	*clefF4	*	*
=23	=23	=23	=23
12GGGnL 12GGn	[4d#X	4D#X 4Fn 4cn	.
12AAAn 12AAn	.	.	.
12FFFnJ 12FFn	.	.	.
12AAAL 12AA	16d#LL]	8D#L 8F 8c	.
.	16d#	.	.
12BBB-X 12BB-X	.	.	.
.	16d#	8D#J 8F 8B-X	.
12FFFJ 12FF	.	.	.
.	16d#JJ	.	.
12BBBnL 12BBn	4d#	4D# 4F 4An	.
12CCn 12Cn	.	.	.
12FFFJ 12FF	.	.	.
12BBB#XL 12BB#X	4e	4E 4A	.
12CC#X 12C#X	.	.	.
12EEEJ 12EE	.	.	.
*	*v	*v	*
*	*clefG2	*
=24	=24	=24
12EEL 12E	4c# 4g# 4cc#	.
12E 12e	.	.
12D#J 12d#	.	.
12DnL 12dn	4B 4g# 4b	.
12FF# 12F#	.	.
12FFnJ 12Fn	.	.
12EEL 12E	4.An 4.c# 4.an	.
12FF#X 12F#X	.	.
12EEJ 12E	.	.
12DD#XL 12D#X	.	.
12EE 12E	.	.
.	8r	.
12AAAnJ 12AAn	.	.
=25	=25	=25
*	*^	*
12BBBL 12BB	[4f##X	4F##X 4An 4e	.
12CC# 12C#	.	.	.
12AAAnJ 12AAn	.	.	.
12CC#L 12C#	16f##LL]	8F##L 8A 8e	.
.	16f##	.	.
12DDn 12Dn	.	.	.
.	16f##	8F##J 8A 8dn	.
12AAAJ 12AA	.	.	.
.	16f##JJ	.	.
12DD#XL 12D#X	4f##	4F## 4A 4c#	.
12EE 12E	.	.	.
12AAAJ 12AA	.	.	.
12DD#L 12D#	4g#	4G# 4c#	.
12EE 12E	.	.	.
12GGG#J 12GG#	.	.	.
*	*v	*v	*
=26	=26	=26
12GGG#L 12GG#	4e 4b#X 4ee	.
12An 12an	.	.
12F##XJ 12f##X	.	.
12AL 12a	4d# 4b# 4dd#	.
12G# 12g#	.	.
12GG#J 12G#	.	.
12GGG#L 12GG#	8r	.
12GG# 12G#	.	.
.	4G# 4g#	.
12FF##XJ 12F##X	.	.
12FF#XL 12F#X	.	.
12EE 12E	.	.
.	8G# 8g#	.
12DD#J 12D#	.	.
=27	=27	=27
*	*^	*
12BBB#XL 12BB#X	4G# 4g#	4e	.
12CC# 12C#	.	.	.
12CC#J 12C#	.	.	.
12DDnL 12Dn	8AnL 8an	4B#X 4f#	.
12DD#X 12D#X	.	.	.
.	8G#J 8g#	.	.
12DD#J 12D#	.	.	.
12DD#L 12D#	8B#L 8b#X	4g#	.
12EE 12E	.	.	.
.	8c#J 8cc#	.	.
12EEJ 12E	.	.	.
12D#L 12d#	8g#L 8gg#	4cc#	.
12E 12e	.	.	.
.	8g#J 8gg#	.	.
12EJ 12e	.	.	.
=28	=28	=28	=28
12EL 12e	8g#L 8gg#	4cc#	.
12AAn 12An	.	.	.
.	8f##XJ 8ff##X	.	.
12AAJ 12A	.	.	.
12AAL 12A	2f#X 2ff#X	4cc#	.
12DDn 12Dn	.	.	.
12DDJ 12D	.	.	.
12DDL 12D	.	4b#X	.
12DD#X 12D#X	.	.	.
12DD#J 12D#	.	.	.
12GG#L 12G#	8eL 8ee	4b#	.
12FF# 12F#	.	.	.
.	8d#J 8dd#	.	.
12FF#J 12F#	.	.	.
=29	=29	=29	=29
12DD#L 12D#	8f#L 8ff#	4g# 4cc#	.
12EE 12E	.	.	.
.	8eJ 8ee	.	.
12EEJ 12E	.	.	.
12DD#L 12D#	8f#L 8ff#	4g# 4cc#	.
12EE 12E	.	.	.
.	8eJ 8ee	.	.
12EEJ 12E	.	.	.
12EE#XL 12E#X	8enL 8een	4an 4cc#	.
12FF# 12F#	.	.	.
.	8d#J 8dd#	.	.
12FF#J 12F#	.	.	.
12FF#L 12F#	8eL 8ee	4a 4cc#	.
12FF##X 12F##X	.	.	.
.	8d#J 8dd#	.	.
12FF##J 12F##	.	.	.
*	*v	*v	*
=30	=30	=30
12FF##XL 12F##X	4d# 4b#X 4dd#	.
12GG# 12G#	.	.
12GG#J 12G#	.	.
12FF##L 12F##	4e 4cc# 4ee	.
12GG# 12G#	.	.
12GG#J 12G#	.	.
12FF##L 12F##	2d# 2b# 2dd#	.
12GG# 12G#	.	.
12GG#J 12G#	.	.
12AAnL 12An	.	.
12GG# 12G#	.	.
12GG#J 12G#	.	.
=31	=31	=31
*	*^	*
12BBB#XL 12BB#X	4G# 4g#	4e	.
12CC# 12C#	.	.	.
12CC#J 12C#	.	.	.
12DDnL 12Dn	8AnL 8an	4B#X 4f#	.
12DD#X 12D#X	.	.	.
.	8G#J 8g#	.	.
12DD#J 12D#	.	.	.
12DD#L 12D#	8B#L 8b#X	4g#	.
12EE 12E	.	.	.
.	8c#J 8cc#	.	.
12EEJ 12E	.	.	.
12D#L 12d#	8g#L 8gg#	4cc#	.
12E 12e	.	.	.
.	8g#J 8gg#	.	.
12EJ 12e	.	.	.
=32	=32	=32	=32
12EL 12e	8g#L 8gg#	4cc##X	.
12AA# 12A#	.	.	.
.	8f##XJ 8ff##X	.	.
12AA#J 12A#	.	.	.
12AA#L 12A#	[4a# [4aa#	2cc##	.
12EE 12E	.	.	.
12EEJ 12E	.	.	.
12EEL 12E	8a#L] 8aa#]	.	.
12AA# 12A#	.	.	.
.	8g#J 8gg#	.	.
12AA#J 12A#	.	.	.
12AA#L 12A#	8f#XL 8ff#X	4g# 4cc##	.
12AA# 12A#	.	.	.
.	8eJ 8ee	.	.
12AA#J 12A#	.	.	.
=33	=33	=33	=33
12DD#L 12D#	4d# 4dd#	4g#	.
12AA# 12A#	.	.	.
12BBJ 12B	.	.	.
12C#L 12c#	8eL 8ee	4g#	.
12AA# 12A#	.	.	.
.	8d#J 8dd#	.	.
12BBJ 12B	.	.	.
12DD#L 12D#	8f##XL 8ff##X	4dd#	.
12AA# 12A#	.	.	.
.	8g#J 8gg#	.	.
12BBJ 12B	.	.	.
12C#L 12c#	8eeL 8eee	4gg#	.
12AA# 12A#	.	.	.
.	8eeJ 8eee	.	.
12BBJ 12B	.	.	.
*	*v	*v	*
=34	=34	=34
12DD#L 12D#	4cc# 4ff##X 4eee	.
12GG##X 12G##X	.	.
12AA#J 12A#	.	.
12BBL 12B	4cc# 4ff## 4ddd#	.
12GG## 12G##	.	.
12AA#J 12A#	.	.
12DD#L 12D#	4r	.
12GG## 12G##	.	.
12AA#J 12A#	.	.
12BBL 12B	4F##X 4f##X	.
12AA# 12A#	.	.
12DD#J 12D#	.	.
=35	=35	=35
12EEL 12E	[4G# [4g#	.
12FF# 12F#	.	.
12GGG#J 12GG#	.	.
12DD#L 12D#	16G#LL] 16g#]	.
.	16G# 16g#	.
12EE 12E	.	.
.	16G# 16g#	.
12GGG#J 12GG#	.	.
.	16G#JJ 16g#	.
12CC#L 12C#	4G# 4g#	.
12DD# 12D#	.	.
12GGG#J 12GG#	.	.
12BBBL 12BB	4G# 4g#	.
12CC# 12C#	.	.
12GGG#J 12GG#	.	.
=36	=36	=36
12AAA#L 12AA#	4G# 4g#	.
12BBB 12BB	.	.
12GGG#J 12GG#	.	.
12BL 12e 12b	8g#L 8ee 8gg#	.
12A# 12e 12a#	.	.
.	8bJ 8ee 8bb	.
12G#J 12e 12g#	.	.
12F#L 12B 12f#	8cc#L 8gg# 8ccc#	.
12E 12B 12e	.	.
.	8dd#J 8gg# 8ddd#	.
12D#J 12B 12d#	.	.
12C#L 12E 12c#	8eeL 8gg# 8eee	.
12BB 12E 12B	.	.
.	8gg#J 8ggg#	.
12GG#J 12E 12G#	.	.
=37	=37	=37
12AAnL 12An	[4c# [4cc#	.
12BB 12B	.	.
12CC#J 12C#	.	.
12GG#L 12G#	16c#LL] 16cc#]	.
.	16c# 16cc#	.
12AA 12A	.	.
.	16c# 16cc#	.
12CC#J 12C#	.	.
.	16c#JJ 16cc#	.
12FF#L 12F#	4c# 4cc#	.
12GG# 12G#	.	.
12CC#J 12C#	.	.
12EEL 12E	4c# 4cc#	.
12FF# 12F#	.	.
12CC#J 12C#	.	.
=38	=38	=38
12DD#L 12D#	4c# 4cc#	.
12EE 12E	.	.
12CC#J 12C#	.	.
*clefG2	*	*
12eL 12an 12ee	8cc#L 8aan 8ccc#	.
12d# 12a 12dd#	.	.
.	8eeJ 8aa 8eee	.
12c#J 12a 12cc#	.	.
12BL 12e 12b	8ff#L 8ccc# 8fff#	.
12An 12e 12a	.	.
.	8gg#J 8ccc# 8ggg#	.
12G#J 12e 12g#	.	.
*clefF4	*	*
12F#L 12An 12f#	8aaL 8ccc# 8aaan	.
12E 12A 12e	.	.
.	8ccc#J 8cccc#	.
12C#J 12A 12c#	.	.
=39	=39	=39
*	*^	*
12CC#L 12C#	4d# 4f##X 4dd#	4rc	.
12BB 12B	.	.	.
12AA#J 12A#	.	.	.
12GG##XL 12G##X	8eL 8f## 8ee	4rc	.
12AA# 12A#	.	.	.
.	8d#J 8f## 8dd#	.	.
12CC#J 12C#	.	.	.
12BBBL 12BB	8f##L 8dd# 8ff##X	4rc	.
12D# 12d#	.	.	.
.	8g#J 8dd# 8gg#	.	.
12GG#XJ 12G#X	.	.	.
4G# 4d# 4b	6a# 6aa#	4dd#	.
.	12g# 12gg#	.	.
=40	=40	=40	=40
12FF#L 12F#	4g# 4b#X 4gg#	4rc	.
12E 12e	.	.	.
12D#J 12d#	.	.	.
12C##XL 12c##X	8anL 8b# 8aan	4rc	.
12D# 12d#	.	.	.
.	8g#J 8b# 8gg#	.	.
12FF#J 12F#	.	.	.
12EEL 12E	8b#L 8gg# 8bb#X	4rc	.
12G# 12g#	.	.	.
.	8cc#J 8gg# 8ccc#	.	.
12C#XJ 12c#X	.	.	.
*clefG2	*	*	*
4c# 4g# 4ee	12dd#L 12ddd#	4gg#	.
.	12cc# 12ccc#	.	.
.	12g#J 12gg#	.	.
*clefF4	*	*	*
=41	=41	=41	=41
12DDD#L 12DD#	8eeL 8eee	4gg#	.
12D# 12d#	.	.	.
.	8dd#J 8ddd#	.	.
12BBJ 12B	.	.	.
4G# 4d# 4g#	12cc#L 12ccc#	4gg#	.
.	12.b 12.bb	.	.
.	24a#Jk 24aa#	.	.
12DDD#L 12DD#	8a#L 8aa#	4ee	.
12E 12e	.	.	.
.	8g#J 8gg#	.	.
12BBJ 12B	.	.	.
4G# 4c##X 4g#	6f# 6ff#	4cc##X	.
.	12e 12ee	.	.
=42	=42	=42	=42
8DDD#L 8DD#	12eL 12ee	4rc	.
.	12d# 12dd#	.	.
8DD#J 8D#	.	.	.
.	12c#J 12cc#	.	.
8D#L 8c#	12BL 12b	4f##X	.
.	12A# 12a#	.	.
8DD#J 8D#	.	.	.
.	12BJ 12b	.	.
12EEL 12E	2G# 2e 2g#	2rc	.
12AA# 12A#	.	.	.
12BBJ 12B	.	.	.
12C#L 12c#	.	.	.
12BB 12B	.	.	.
12EEJ 12E	.	.	.
*	*v	*v	*
=43	=43	=43
12BBB#XL 12BB#X	4A# 4e 4g# 4a#	.
12CC# 12C#	.	.
12GG#J 12G#	.	.
12CC##XL 12C##X	4B#X 4f# 4g# 4b#X	.
12DD# 12D#	.	.
12GG#J 12G#	.	.
12DD#L 12D#	4c# 4g# 4cc#	.
12EE 12E	.	.
12GG#J 12G#	.	.
12DD#L 12D#	4c##X 4g# 4bn 4cc##X	.
12EE 12E	.	.
12GG#J 12G#	.	.
=44	=44	=44
12CC##XL 12C##X	4d# 4g# 4b 4dd#	.
12DD# 12D#	.	.
12GG#J 12G#	.	.
12BL 12d# 12b	12bbL 12ddd# 12bbb	.
12A# 12a#	12aa# 12aaa#	.
12G#J 12g#	12gg#J 12ggg#	.
12F#L 12f#	12ff#L 12fff#	.
12E 12e	12ee 12eee	.
12D#J 12d#	12dd#J 12ddd#	.
12C#XL 12c#X	12cc#XL 12ccc#X	.
12BB 12B	12b 12bb	.
12GG#J 12G#	12g#J 12gg#	.
=45	=45	=45
*^	*^	*
12CC##XL 12C##X	4GG#	12c##XL 12cc##X	4g#	.
12DD# 12D#	.	12d# 12dd#	.	.
12GG#J 12G#	.	12g#J 12gg#	.	.
12BBL 12D# 12B	4rEE	12bL 12dd# 12bb	4rc	.
12AA# 12A#	.	12a# 12aa#	.	.
12GG#J 12G#	.	12g#J 12gg#	.	.
12FF#L 12F#	4rEE	12f#L 12ff#	4rc	.
12EE 12E	.	12e 12ee	.	.
12DD#J 12D#	.	12d#J 12dd#	.	.
12CC#XL 12C#X	4rEE	12c#XL 12cc#X	4rc	.
12BBB 12BB	.	12B 12b	.	.
12GGG#J 12GG#	.	12G#J 12g#	.	.
*v	*v	*	*	*
*	*v	*v	*
=46	=46	=46
[4DDD# [4DD#	2D# 2d#	.
6DDD#] 6DD#]	.	.
[12DDD# [12DD#	.	.
4DDD#_ 4DD#_	2D# 2G# 2A# 2d#	.
6DDD#] 6DD#]	.	.
[12DDD# [12DD#	.	.
=47	=47	=47
6DDD#] 6DD#]	4D# 4G# 4B 4d#	.
[12GGG# [12GG#	.	.
6GGG#] 6GG#]	4D# 4G# 4A# 4d#	.
[12DDD# [12DD#	.	.
6DDD#] 6DD#]	4D# 4G# 4B 4d#	.
[12GGG# [12GG#	.	.
6GGG#] 6GG#]	4D# 4G# 4A# 4d#	.
12DDD# 12DD#	.	.
=48||	=48||	=48||
*k[b-e-a-d-]	*k[b-e-a-d-]	*
2r	1r	.
4r	.	.
8r	.	.
[8E- [8e-	.	.
=49	=49	=49
*M12/8	*M12/8	*
4E-] 4e-]	4.c 4.a- 4.cc	.
[8AA- [8A-	.	.
4AA-] 4A-]	4.B- 4.e- 4.a- 4.b-	.
[8EE- [8E-	.	.
4EE-] 4E-]	4.c 4.e- 4.a- 4.cc	.
[8AA- [8A-	.	.
4AA-] 4A-]	4.d- 4.e- 4.a- 4.b- 4.ee-	.
[8BB- [8B-	.	.
=50	=50	=50
*^	*^	*
4BB-] 4B-]	4.rEE	4.d- 4.e- 4.g 4.b- 4.ee-	4.rc	.
8EE- 8E-	.	.	.	.
4.E- 4.d- 4.g	4.rEE	4cc 4ccc	4.gg	.
.	.	8b- 8bb-	.	.
4.B- [4.d- 4.a-	4.rEE	8b-L 8bb-	16%3ffL	.
.	.	8f 8ff	.	.
.	.	.	16%3a-J	.
.	.	8e-J 8ee-	.	.
4d-]	8cL	4.e- 4.ee-	4.g	.
.	8B-	.	.	.
[8E- [8e-	[8E-J	.	.	.
*	*	*v	*v	*
=51	=51	=51	=51
4E-] 4e-]	4E-]	4.c 4.a- 4.cc	.
[8AA- [8A-	8rEE	.	.
4AA-] 4A-]	2.rEE	4.B- 4.e- 4.a- 4.b-	.
[8EE- [8E-	.	.	.
4EE-] 4E-]	.	4.c 4.e- 4.a- 4.cc	.
[8AA- [8A-	.	.	.
4AA-] 4A-]	4.rEE	4.dn 4.f 4.cc 4.ddn	.
[8AA- [8A-	.	.	.
=52	=52	=52	=52
*	*	*^	*
4AA-] 4A-]	4.rEE	4.dn 4.f 4.bn 4.ddn	4.rc	.
8GG 8G	.	.	.	.
*clefG2	*	*	*	*
4.G 4.f 4.bn	4.rc	4ee- 4eee-	4.bbn	.
.	.	8ddn 8dddn	.	.
4.dn [4.f 4.cc	4.rc	8ddL 8ddd	16%3aa-L	.
.	.	8a- 8aa-	.	.
.	.	.	16%3ccJ	.
.	.	8gJ 8gg	.	.
4f]	8e-L	4.g 4.gg	4.bn	.
.	8d	.	.	.
[8G [8g	[8GJ	.	.	.
*	*	*v	*v	*
=53	=53	=53	=53
4G] 4g]	4G]	4.e- 4.cc 4.ee-	.
*clefF4	*	*	*
[8C [8c	8rEE	.	.
4C] 4c]	4.rEE	4.dn 4.g 4.cc 4.ddn	.
[8GG [8G	.	.	.
4GG] 4G]	4.rEE	4.e- 4.g 4.cc 4.ee-	.
[8C [8c	.	.	.
4C] 4c]	4.rEE	4.f 4.an 4.ee- 4.ff	.
[8C-X [8c-X	.	.	.
*v	*v	*	*
=54	=54	=54
4C-] 4c-]	4.g 4.ee- 4.gg	.
[8BB- [8B-	.	.
8BB-L] 8B-]	4.b- 4.ee- 4.bb-	.
8E- 8e-	.	.
8FJ 8f	.	.
*clefG2	*	*
8GL 8g	4.ee- 4.bb- 4.eee-	.
8An 8an	.	.
8B-J 8b-	.	.
4g 4gg	4.ddn 4.bb- 4.dddn	.
[8g [8gg	.	.
=55	=55	=55
*	*^	*
4g] 4gg]	4.dd-X 4.bb- 4.ddd-X	4.rc	.
8G 8g	.	.	.
8A-L 8a-	4.cc 4.een 4.ccc	4.rc	.
8G 8g	.	.	.
8CJ 8c	.	.	.
4.F 4.f	4b- 4bb-	4.cc 4.ff	.
.	8a- 8aa-	.	.
*clefF4	*	*	*
[4.C [4.c	8b-L 8bb-	4.cc 4.ff	.
.	8a- 8aa-	.	.
.	8cJ 8cc	.	.
*	*v	*v	*
=56	=56	=56
4C] 4c]	4.g 4.a- 4.ddn 4.gg	.
8BB- 8B-	.	.
8CL 8c	4.f 4.a- 4.dd 4.ff	.
8BB- 8B-	.	.
[8BBB-J [8BB-	.	.
8BBB-L] 8BB-]	8e- 8g 8ee-	.
8GG 8G	8r	.
8FFJ 8F	8r	.
8GGL 8G	4r	.
8FF 8F	.	.
[8EE-J [8E-	8r	.
=57	=57	=57
4EE-] 4E-]	4.F 4.A- 4.d- 4.f	.
[8DD- [8D-	.	.
4DD-] 4D-]	4.E- 4.A- 4.d- 4.e-	.
[8AAA- [8AA-	.	.
4AAA-] 4AA-]	4.F 4.A- 4.d- 4.f	.
[8DD- [8D-	.	.
4DD-] 4D-]	4.G-X 4.A- 4.d- 4.e- 4.a-	.
[8EE- [8E-	.	.
=58	=58	=58
*^	*^	*
4EE-] 4E-]	4.rEE	4.G-X 4.A- 4.c 4.e- 4.a-	4.rc	.
8AAA- 8AA-	.	.	.	.
*clefG2	*	*	*	*
4.A- 4.g-X 4.cc	4.rc	4ff 4fff	4.ccc	.
.	.	8ee- 8eee-	.	.
4.e- [4.g- 4.dd-	4.rc	8ee-L 8eee-	16%3bb-L	.
.	.	8b- 8bb-	.	.
.	.	.	16%3dd-J	.
.	.	8a-J 8aa-	.	.
4g-]	8fL	4.a- 4.aa-	4.cc	.
.	8e-	.	.	.
[8A- [8a-	[8A-J	.	.	.
*	*	*v	*v	*
=59	=59	=59	=59
4A-] 4a-]	4A-]	4.F 4.A- 4.d- 4.f	.
*clefF4	*	*	*
[8DD- [8D-	8rEE	.	.
4DD-] 4D-]	4.rEE	4.E- 4.A- 4.d- 4.e-	.
[8AAA- [8AA-	.	.	.
4AAA-] 4AA-]	4.rEE	4.F 4.A- 4.d- 4.f	.
[8DD- [8D-	.	.	.
4DD-] 4D-]	4.rEE	4.G 4.B- 4.f 4.g	.
[8DD- [8D-	.	.	.
=60	=60	=60	=60
*	*	*^	*
4DD-] 4D-]	4.rEE	4.G 4.B- 4.en 4.g	4.rc	.
8CC 8C	.	.	.	.
*clefG2	*	*	*	*
4.c 4.b- 4.een	4.rc	4aa- 4aaa-	4.eeen	.
.	.	8gg 8ggg	.	.
4.g [4.b- 4.ff	4.rc	8ggL 8ggg	16%3ddd-L	.
.	.	8dd- 8ddd-	.	.
.	.	.	16%3ffJ	.
.	.	8ccJ 8ccc	.	.
16%3b-L]	8a-L	4.cc 4.ccc	4.een	.
.	8g	.	.	.
[16%3ccJ	.	.	.	.
.	[8cJ	.	.	.
*	*	*v	*v	*
=61	=61	=61	=61
4cc]	4c]	4.A- 4.f 4.a-	.
*clefF4	*	*	*
[8FF [8F	8rEE	.	.
4FF] 4F]	2.rEE	4.G 4.c 4.f 4.g	.
[8CC [8C	.	.	.
4CC] 4C]	.	4.A- 4.c 4.f 4.a-	.
[8FF [8F	.	.	.
4FF] 4F]	4.rEE	4.B- 4.dn 4.a- 4.b-	.
[8FF-X [8F-X	.	.	.
*v	*v	*	*
=62	=62	=62
4FF-] 4F-]	4.c 4.a- 4.cc	.
[8EE- [8E-	.	.
8EE-L] 8E-]	4.e- 4.a- 4.ee-	.
8AA- 8A-	.	.
8BB-J 8B-	.	.
8CL 8c	4.a- 4.ee- 4.aa-	.
8Dn 8dn	.	.
8E-J 8e-	.	.
*clefG2	*	*
4c 4cc	4.g 4.ee- 4.gg	.
[8c [8cc	.	.
=63	=63	=63
*	*^	*
4c] 4cc]	4.g-X 4.ee- 4.gg-X	4.rc	.
*clefF4	*	*	*
8C 8c	.	.	.
8D-L 8d-	4.f 4.an 4.ff	4.rc	.
8C 8c	.	.	.
8FFJ 8F	.	.	.
4.BB- 4.B-	4e- 4ee-	4.f 4.b-	.
.	8d- 8dd-	.	.
[4.FF [4.F	8e-L 8ee-	4.f 4.b-	.
.	8d- 8dd-	.	.
.	8FJ 8f	.	.
*	*v	*v	*
=64	=64	=64
4FF] 4F]	4.c 4.d- 4.g 4.cc	.
8EE- 8E-	.	.
8FFL 8F	4.B- 4.d- 4.g 4.b-	.
8EE- 8E-	.	.
[8EEE-J [8EE-	.	.
8EEE-L] 8EE-]	4.A- 4.c 4.a-	.
8CC 8C	.	.
8BBB-J 8BB-	.	.
8AAA-L 8AA-	4r	.
8AAA- 8AA-	.	.
8GGG-XJ 8GG-X	8r	.
=65	=65	=65
[4.FFF-X [4.FF-X	4.a- 4.ff-X 4.aa-	.
8FFF-L] 8FF-]	4.g-X 4.cc-X 4.gg-X	.
8CC-X 8C-X	.	.
8GG-XJ 8G-X	.	.
8AA-L 8A-	4.f-X 4.cc- 4.ff-X	.
8C-X 8c-X	.	.
8F-XJ 8f-X	.	.
4A- 4a-	4.e- 4.cc- 4.ee-	.
8A- 8a-	.	.
=66	=66	=66
*	*^	*
2.A- 2.a-	4.d- 4.dd-	2.f-X	.
.	4.c-X 4.cc-X	.	.
[4.C-X [4.A- [4.f-X	4.d- 4.dd-	2.a-	.
4C-] 4A-] 4f-]	4.e- 4.ee-	.	.
8CC-X 8C-	.	.	.
*	*v	*v	*
=67	=67	=67
8CC-X 8C-X	4.a- 4.cc-X 4.ff-X 4.aa-	.
[4FF-X [4F-X	.	.
4FF-] 4F-]	4.g-X 4.a- 4.cc- 4.gg-X	.
8FF- 8F-	.	.
8FF- 8F-	4.f-X 4.a- 4.cc- 4.ff-X	.
[4AA- [4A-	.	.
4.AA-] 4.A-]	4.e- 4.a- 4.cc- 4.ee-	.
=68	=68	=68
4.BB- 4.B-	4.dn 4.f 4.b- 4.ddn	.
4.FF 4.F	4.c 4.f 4.an 4.cc	.
4.BB- 4.B-	2.d 2.f 2.b-	.
4.AA- 4.A-	.	.
=69	=69	=69
[4.GGG-X [4.GG-X	4.b- 4.dd- 4.gg-X 4.bb-	.
8GGG-L] 8GG-]	4.a- 4.b- 4.dd- 4.aa-	.
8DD- 8D-	.	.
8AA-J 8A-	.	.
8BB-L 8B-	4.g-X 4.dd- 4.gg-X	.
8D- 8d-	.	.
8G-XJ 8g-X	.	.
4B- 4b-	4.f 4.dd- 4.ff	.
8B- 8b-	.	.
=70	=70	=70
*	*^	*
2.B- 2.b-	4.e- 4.ee-	2.g-X	.
.	4.d- 4.dd-	.	.
[4.D- [4.B- [4.g-X	4.e- 4.ee-	2.b-	.
4D-] 4B-] 4g-]	4.f 4.ff	.	.
8DD- 8D-	.	.	.
*	*v	*v	*
=71	=71	=71
8DD- 8D-	4.b- 4.dd- 4.gg-X 4.bb-	.
[4GG-X [4G-X	.	.
4GG-] 4G-]	4.a- 4.b- 4.dd- 4.aa-	.
8GG- 8G-	.	.
8GG- 8G-	4.g-X 4.b- 4.dd- 4.gg-X	.
[4BB- [4B-	.	.
4.BB-] 4.B-]	4.f 4.b- 4.dd- 4.ff	.
=72	=72	=72
*^	*	*
1.ryy	4.C 4.Gn 4.c	4.en 4.gn 4.cc 4.een	.
.	4.C 4.G 4.c	2.e-X 2.g 2.cc 2.ee-X	.
.	4.EE- 4.E-	.	.
.	4BB- 4E- 4B-	4.d- 4.g 4.ee-	.
.	[8E- [8e-	.	.
=73	=73	=73	=73
4.c 4.e- 4.a-	4E-] 4e-]	4.cc 4.ee- 4.aa- 4.ccc	.
.	[8AA- [8A-	.	.
4.B- 4.e- 4.a-	4AA-] 4A-]	4.b- 4.ee- 4.aa- 4.bb-	.
.	[8EE- [8E-	.	.
4.c 4.e- 4.a-	4EE-] 4E-]	4.cc 4.ee- 4.aa- 4.ccc	.
.	[8AA- [8A-	.	.
4.d- 4.e- 4.a- 4.b-	4AA-] 4A-]	4.dd- 4.ee- 4.aa- 4.bb- 4.eee-	.
.	[8BB- [8B-	.	.
=74	=74	=74	=74
*	*	*^	*
4.d- 4.e- 4.g 4.b-	4BB-] 4B-]	4.dd- 4.ee- 4.gg 4.bb- 4.eee-	4.rc	.
.	8EE- 8E-	.	.	.
*clefG2	*	*	*	*
4.d- 4.e- 4.g 4.dd-	4.rc	4ccc 4cccc	4.ggg	.
.	.	8bb- 8bbb-	.	.
4.d- 4.e- 4.a- 4.dd-	4.rc	8bb-L 8bbb-	16%3fffL	.
.	.	8ff 8fff	.	.
.	.	.	16%3aa-J	.
.	.	8ee-J 8eee-	.	.
4.e- 4.g	8cL 8cc	4.ee- 4.eee-	4.gg	.
.	8B- 8b-	.	.	.
*clefF4	*	*	*	*
.	[8E-J [8e-	.	.	.
*	*	*v	*v	*
=75	=75	=75	=75
4.c 4.e- 4.a-	4E-] 4e-]	4.cc 4.ee- 4.aa- 4.ccc	.
.	[8AA- [8A-	.	.
4.B- 4.e- 4.a-	4AA-] 4A-]	4.b- 4.ee- 4.aa- 4.bb-	.
.	[8EE- [8E-	.	.
4.c 4.e- 4.a-	4EE-] 4E-]	4.cc 4.ee- 4.aa- 4.ccc	.
.	[8AA- [8A-	.	.
4.c 4.f 4.cc	4AA-] 4A-]	4.ddn 4.ff 4.ccc 4.dddn	.
.	[8AA- [8A-	.	.
=76	=76	=76	=76
*	*	*^	*
4.dn 4.f 4.bn	4AA-] 4A-]	4.ddn 4.ff 4.bbn 4.dddn	4.rc	.
.	8GG 8G	.	.	.
*clefG2	*	*	*	*
4.G 4.f 4.bn	4.rc	4ee- 4eee-	4.bb	.
.	.	8dd 8ddd	.	.
4.dn [4.f 4.cc	4.rc	8ddL 8ddd	16%3aa-L	.
.	.	8a- 8aa-	.	.
.	.	.	16%3ccJ	.
.	.	8gJ 8gg	.	.
4f]	8e-L	4.g 4.gg	4.bn	.
.	8d	.	.	.
[8G [8g	[8GJ	.	.	.
*	*	*v	*v	*
=77	=77	=77	=77
*	*^	*	*
4.G] 4.g]	4G]	4.E-/ 4.G 4.c	4.e- 4.g 4.cc 4.ee-	.
.	[8CC [8C	.	.	.
*clefF4	*	*	*	*
4.Dn 4.G 4.c	4CC] 4C]	2.r	4.dn 4.g 4.cc 4.ddn	.
.	[8GGG [8GG	.	.	.
4.E- 4.G 4.c	4GGG] 4GG]	.	4.e- 4.g 4.cc 4.ee-	.
.	[8CC [8C	.	.	.
4.F#X 4.G#X 4.B#X	4BBB#X] 4BB#X]	4.r	4.d#X 4.g#X 4.b#X 4.dd#X	.
.	[8GGG#X [8GG#X	.	.	.
*v	*v	*v	*	*
=78||	=78||	=78||
*k[f#c#g#d#a#]	*k[f#c#g#d#a#]	*
*^	*	*
4.E 4.G# 4.c#	4GGG#] 4GG#]	4.e 4.g# 4.cc# 4.ee	.
.	[8CC# [8C#	.	.
4.D# 4.G# 4.c#	4CC#] 4C#]	4.d# 4.g# 4.cc# 4.dd#	.
.	[8GG# [8G#	.	.
4.E 4.G# 4.c#	4GG#] 4G#]	4.e 4.g# 4.cc# 4.ee	.
.	[8CC# [8C#	.	.
4.F# 4.An 4.d#	4CC#] 4C#]	4.f# 4.an 4.dd# 4.ff#	.
.	[8BBB [8BB	.	.
=79	=79	=79	=79
4.G# 4.B 4.e	4BBB] 4BB]	4.g# 4.b 4.ee 4.gg#	.
.	[8EE [8E	.	.
4.F# 4.B 4.e	4EE] 4E]	4.f# 4.b 4.ee 4.ff#	.
.	[8BB [8B	.	.
4.G# 4.B 4.e	4BB] 4B]	4.g# 4.b 4.ee 4.gg#	.
.	[8EE [8E	.	.
4.A# 4.c##X 4.g#	4EE] 4E]	4.a# 4.cc##X 4.gg# 4.aa#	.
.	[8EE [8E	.	.
=80	=80	=80	=80
4.B 4.c##X 4.g#	4.EE_ 4.E_	4.b 4.cc##X 4.gg# 4.bb	.
4.rc	8EEL] 8E]	4.f##X 4.cc## 4.ff##X	.
.	8AA# 8A#	.	.
.	8BBJ 8B	.	.
4.rc	8EL 8e	4.g# 4.cc## 4.gg#	.
.	8BB 8B	.	.
.	8EEJ 8E	.	.
4.rc	8AAA#L 8AA#	4.G# 4.c##X	.
.	8BBB 8BB	.	.
.	8EEEJ 8EE	.	.
*v	*v	*	*
=81	=81	=81
*M4/4	*M4/4	*
*met(c)	*met(c)	*
4DDD# 4DD#	12d#L	.
.	12e	.
.	12G#J	.
12GGG#L 12GG#	12c#L	.
12AAA# 12AA#	12d#	.
12BBBJ 12BB	12G#J	.
[4EE [4E	12BL	.
.	12c#	.
.	12G#J	.
8EEL] 8E]	12A#L	.
.	12B	.
8DD#J 8D#	.	.
.	12G#J	.
=82	=82	=82
4DDD# 4DD#	12g#L	.
.	12an	.
.	12c#J	.
12CC#L 12C#	12f#L	.
12DD# 12D#	12g#	.
12EEJ 12E	12c#J	.
[4AAn [4An	12eL	.
.	12f#	.
.	12c#J	.
8AAL] 8A]	12d#L	.
.	12e	.
8GG#J 8G#	.	.
.	12c#J	.
=83	=83	=83
*	*^	*
8DDD#L 8DD#	12eL 12ee	4an 4cc#	.
.	12f# 12ff#	.	.
8C#J 8An	.	.	.
.	12c#J 12cc#	.	.
8EL 8c#	12eL 12ee	4a 4cc#	.
.	12f# 12ff#	.	.
8C#J 8A	.	.	.
.	12c#J 12cc#	.	.
8DDD#L 8DD#	12eL 12ee	4g# 4cc#	.
.	12f# 12ff#	.	.
8C#J 8G#	.	.	.
.	12c#J 12cc#	.	.
8EL 8c#	12eL 12ee	4g# 4cc#	.
.	12f# 12ff#	.	.
8C#J 8G#	.	.	.
.	12c#J 12cc#	.	.
*	*v	*v	*
=84	=84	=84
12DDD#L 12DD#	4e 4f##X 4cc# 4ee	.
12AAAn 12AAn	.	.
12AAA#XJ 12AA#X	.	.
12EEL 12E	2c# 2f## 2cc#	.
12CC##X 12C##X	.	.
12DD#J 12D#	.	.
12EEL 12E	.	.
12CC## 12C##	.	.
12DD#J 12D#	.	.
12EEL 12E	4F##X 4f##	.
12CC## 12C##	.	.
12DD#J 12D#	.	.
=85	=85	=85
12EEL 12E	[4G# [4g#	.
12FF# 12F#	.	.
12GGG#J 12GG#	.	.
12DD#L 12D#	16G#LL] 16g#]	.
.	16G# 16g#	.
12EE 12E	.	.
.	16G# 16g#	.
12GGG#J 12GG#	.	.
.	16G#JJ 16g#	.
12CC#L 12C#	4G# 4g#	.
12DD# 12D#	.	.
12GGG#J 12GG#	.	.
12BBBL 12BB	4G# 4g#	.
12CC# 12C#	.	.
12GGG#J 12GG#	.	.
=86	=86	=86
12AAA#L 12AA#	4G# 4g#	.
12BBB 12BB	.	.
12GGG#J 12GG#	.	.
12BL 12e 12b	8g#L 8ee 8gg#	.
12A# 12e 12a#	.	.
.	8bJ 8ee 8bb	.
12G#J 12e 12g#	.	.
12F#L 12B 12f#	8cc#L 8gg# 8ccc#	.
12E 12B 12e	.	.
.	8dd#J 8gg# 8ddd#	.
12D#J 12B 12d#	.	.
12C#L 12E 12c#	8eeL 8gg# 8eee	.
12BB 12E 12B	.	.
.	8gg#J 8ggg#	.
12GG#J 12E 12G#	.	.
=87	=87	=87
12AAnL 12An	[4c# [4cc#	.
12BB 12B	.	.
12CC#J 12C#	.	.
12GG#L 12G#	16c#LL] 16cc#]	.
.	16c# 16cc#	.
12AA 12A	.	.
.	16c# 16cc#	.
12CC#J 12C#	.	.
.	16c#JJ 16cc#	.
12FF#L 12F#	4c# 4cc#	.
12GG# 12G#	.	.
12CC#J 12C#	.	.
12EEL 12E	4c# 4cc#	.
12FF# 12F#	.	.
12CC#J 12C#	.	.
=88	=88	=88
12DD#L 12D#	4c# 4cc#	.
12EE 12E	.	.
12CC#J 12C#	.	.
*clefG2	*	*
12eL 12an 12ee	8cc#L 8aan 8ccc#	.
12d# 12a 12dd#	.	.
.	8eeJ 8aa 8eee	.
12c#J 12a 12cc#	.	.
12BL 12e 12b	8ff#L 8ccc# 8fff#	.
12An 12e 12a	.	.
.	8gg#J 8ccc# 8ggg#	.
12G#J 12e 12g#	.	.
*clefF4	*	*
12F#L 12An 12f#	8aaL 8ccc# 8aaan	.
12E 12A 12e	.	.
.	8ccc#J 8cccc#	.
12C#J 12A 12c#	.	.
=89	=89	=89
*	*^	*
12CC#L 12C#	4d# 4f##X 4dd#	4rc	.
12BB 12B	.	.	.
12AA#J 12A#	.	.	.
12GG##XL 12G##X	8eL 8f## 8ee	4rc	.
12AA# 12A#	.	.	.
.	8d#J 8f## 8dd#	.	.
12CC#J 12C#	.	.	.
12BBBL 12BB	8f##L 8dd# 8ff##X	4rc	.
12D# 12d#	.	.	.
.	8g#J 8dd# 8gg#	.	.
12GG#XJ 12G#X	.	.	.
4G# 4d# 4b	6a# 6aa#	4dd#	.
.	12g# 12gg#	.	.
=90	=90	=90	=90
12FF#L 12F#	4g# 4b#X 4gg#	4rc	.
12E 12e	.	.	.
12D#J 12d#	.	.	.
12C##XL 12c##X	8anL 8b# 8aan	4rc	.
12D# 12d#	.	.	.
.	8g#J 8b# 8gg#	.	.
12FF#J 12F#	.	.	.
12EEL 12E	8b#L 8gg# 8bb#X	4rc	.
12G# 12g#	.	.	.
.	8cc#J 8gg# 8ccc#	.	.
12C#XJ 12c#X	.	.	.
*clefG2	*	*	*
4c# 4g# 4ee	12dd#L 12ddd#	4gg#	.
.	12cc# 12ccc#	.	.
.	12g#J 12gg#	.	.
*clefF4	*	*	*
=91	=91	=91	=91
12DDD#L 12DD#	8eeL 8eee	4gg#	.
12D# 12d#	.	.	.
.	8dd#J 8ddd#	.	.
12BBJ 12B	.	.	.
4G# 4d# 4g#	12cc#L 12ccc#	4gg#	.
.	12.b 12.bb	.	.
.	24a#Jk 24aa#	.	.
12DDD#L 12DD#	8a#L 8aa#	4ee	.
12E 12e	.	.	.
.	8g#J 8gg#	.	.
12BBJ 12B	.	.	.
4G# 4c##X 4g#	6f# 6ff#	4cc##X	.
.	12e 12ee	.	.
=92	=92	=92	=92
8DDD#L 8DD#	12eL 12ee	4rc	.
.	12d# 12dd#	.	.
8DD#J 8D#	.	.	.
.	12c#J 12cc#	.	.
8D#L 8c#	12BL 12b	4f##X	.
.	12A# 12a#	.	.
8DD#J 8D#	.	.	.
.	12BJ 12b	.	.
12EEL 12E	4G# 4e 4g#	2rc	.
12AA# 12A#	.	.	.
12BBJ 12B	.	.	.
12C#L 12c#	4raa	.	.
12BB 12B	.	.	.
12EEJ 12E	.	.	.
*	*v	*v	*
=93	=93	=93
12BBB#XL 12BB#X	4A# 4e 4g# 4a#	.
12CC# 12C#	.	.
12GG#J 12G#	.	.
12CC##XL 12C##X	4B#X 4f# 4g# 4b#X	.
12DD# 12D#	.	.
12GG#J 12G#	.	.
12DD#L 12D#	4c# 4g# 4cc#	.
12EE 12E	.	.
12GG#J 12G#	.	.
12DD#L 12D#	4c##X 4g# 4bn 4cc##X	.
12EE 12E	.	.
12GG#J 12G#	.	.
=94	=94	=94
12CC##XL 12C##X	4d# 4g# 4b 4dd#	.
12DD# 12D#	.	.
12GG#J 12G#	.	.
12BL 12d# 12b	12bbL 12ddd# 12bbb	.
12A# 12a#	12aa# 12aaa#	.
12G#J 12g#	12gg#J 12ggg#	.
12F#L 12f#	12ff#L 12fff#	.
12E 12e	12ee 12eee	.
12D#J 12d#	12dd#J 12ddd#	.
12C#XL 12c#X	12cc#XL 12ccc#X	.
12BB 12B	12b 12bb	.
12GG#J 12G#	12g#J 12gg#	.
=95	=95	=95
*^	*^	*
12CC##XL 12C##X	4GG#	12c##XL 12cc##X	4g#	.
12DD# 12D#	.	12d# 12dd#	.	.
12GG#J 12G#	.	12g#J 12gg#	.	.
12BBL 12D# 12B	4rEE	12bL 12dd# 12bb	4rc	.
12AA# 12A#	.	12a# 12aa#	.	.
12GG#J 12G#	.	12g#J 12gg#	.	.
12FF#L 12F#	4rEE	12f#L 12ff#	4rc	.
12EE 12E	.	12e 12ee	.	.
12DD#J 12D#	.	12d#J 12dd#	.	.
12CC#XL 12C#X	4rEE	12c#XL 12cc#X	4rc	.
12BBB 12BB	.	12B 12b	.	.
12GGG#J 12GG#	.	12G#J 12g#	.	.
*	*	*clefF4	*	*
=96	=96	=96	=96	=96
12CCC##XL 12CC##X	4GGG#	12C##XL 12c##X	4G#	.
12DDD# 12DD#	.	12D# 12d#	.	.
12GGG#J 12GG#	.	12G#J 12g#	.	.
*	*	*clefG2	*	*
12AAA#L 12AA#	4rEE	12A#L 12a#	4rc	.
12BBB 12BB	.	12B 12b	.	.
12CC#XJ 12C#X	.	12c#XJ 12cc#X	.	.
12CC##XL 12C##X	4GG#	12c##XL 12cc##X	4g#	.
12DD# 12D#	.	12d# 12dd#	.	.
12GG#J 12G#	.	12g#J 12gg#	.	.
12AA#L 12A#	4rEE	12a#L 12aa#	4rc	.
12BB 12B	.	12b 12bb	.	.
12C#XJ 12c#X	.	12cc#XJ 12ccc#X	.	.
=97	=97	=97	=97	=97
12C##XL 12c##X	4G#	12cc##XL 12ccc##X	4gg#	.
12D# 12d#	.	12dd# 12ddd#	.	.
12G#J 12g#	.	12gg#J 12ggg#	.	.
12A#L 12a#	4rEE	12aa#L 12aaa#	4rc	.
12B 12b	.	12bb 12bbb	.	.
12c#XJ 12cc#X	.	12ccc#XJ 12cccc#X	.	.
12c##XL 12cc##X	4rEE	12ccc##XL 12cccc##X	4rc	.
12d#J 12dd#	.	12ddd#J 12dddd#	.	.
12rc	.	12raa	.	.
8DD# 8D#	4rEE	8F##X 8f##X	4rc	.
8rc	.	8raa	.	.
*v	*v	*	*	*
=98	=98	=98	=98
12EEL 12E	[4G# [4g#	12eL	.
12FF# 12F#	.	12f#	.
12GGG#J 12GG#	.	12G#J	.
12DD#L 12D#	16G#LL] 16g#]	12d#L	.
.	16G# 16g#	.	.
12EE 12E	.	12e	.
.	16G# 16g#	.	.
12GGG#J 12GG#	.	12G#J	.
.	16G#JJ 16g#	.	.
12CC#L 12C#	4G# 4g#	12c#L	.
12DD# 12D#	.	12d#	.
12GGG#J 12GG#	.	12G#J	.
12BBBL 12BB	4G# 4g#	12BL	.
12CC# 12C#	.	12c#	.
12GGG#J 12GG#	.	12G#J	.
=99	=99	=99	=99
12AAA#L 12AA#	4G# 4g#	12A#L	.
12BBB 12BB	.	12B	.
12GGG#J 12GG#	.	12G#J	.
12BBL 12B	12bL	4rc	.
12AA# 12A#	12a#	.	.
12GG#J 12G#	12g#J	.	.
12FF#L 12F#	12f#L	2rc	.
12EE 12E	12e	.	.
12DD#J 12D#	12d#J	.	.
12CC#L 12C#	12c#L	.	.
12BBB 12BB	12B	.	.
12GGG#J 12GG#	12G#J	.	.
*	*v	*v	*
=100	=100	=100
12CC#L 12C#	12c#L	.
12BBB 12BB	12B	.
12GGG#J 12GG#	12G#J	.
12BBL 12B	12bL	.
12AA# 12A#	12a#	.
12GG#J 12G#	12g#J	.
12FF#L 12F#	12f#L	.
12EE 12E	12e	.
12DD#J 12D#	12d#J	.
12CC#L 12C#	12c#L	.
12BBB 12BB	12B	.
12GGG#J 12GG#	12G#J	.
=101	=101	=101
12CC#L 12C#	12c#L	.
12BBB 12BB	12B	.
12GGG#J 12GG#	12G#J	.
12EEL 12E	12eL	.
12CC# 12C#	12c#	.
12BBBJ 12BB	12BJ	.
12GG#L 12G#	12g#L	.
12EE 12E	12e	.
12DD#J 12D#	12d#J	.
12C#L 12c#	12cc#L	.
12BB 12B	12b	.
12GG#J 12G#	12g#J	.
=102	=102	=102
4G# 4g#	4gg#	.
4r	4r	.
2GGG# 2DD# 2GG#	2D# 2G# 2d#	.
=103	=103	=103
1GGG# 1DD# 1GG#	1D# 1G# 1d#	.
==	==	==
*-	*-	*-
!!!system-decoration: {(*)}
!!!ENC: Bryan Jacob Bell
!!!END: November 2021 to April 2022
!!!PED: Konstantin Igumnov and Yakov Milstein
!!!PTL: A.N. Skryabin: Polnoe sobranie sochinenii dlia fortepiano (Muzgiz)
